X: 20531
T: le CHAMPIGNON
C: Gallopade.
%R: march
B: W. Hamilton "Universal Tune-Book" Vol. 2 Glasgow 1846 p.53 #1
S: http://s3-eu-west-1.amazonaws.com/itma.dl.printmaterial/book_pdfs/hamiltonvol2web.pdf
Z: 2016 John Chambers <jc:trillian.mit.edu>
N: The 3rd strain has final repeat but no itial repeat; not fixed.
M: 2/4
L: 1/8
K: G
% - - - - - - - - - - - - - - - - - - - - - - - - -
D |\
G2 DB | G2 DB | DD/D/ DD | DBG>D |\
G2 DB | G2 DB | DD/D/ DD | G3 :: F/G/ |\
A2 Dd | B2 GB | DD/D/ DD | DB G2 |
A2 Dd | B2 GB | DD/D/ DD | G3 :| A |\
Bz dz | cz Az | Fz Az | GABz |\
Bz dz | cz Az | Fz Az | G3 :|
% - - - - - - - - - - - - - - - - - - - - - - - - -
